icons/modus-outlined/text-input.svg

<svg xmlns="http://www.w3.org/2000/svg" width="24" height="24" fill="currentColor" viewBox="0 0 24 24">
  <path d="m7,18h1v1h-3v-1h1V6h-1v-1h3v1h-1v12Zm-2-3h-1v-6h1v-2h-1c-1.1,0-2,.9-2,2v6c0,1.1.9,2,2,2h1v-2Zm3-8v2h12v6h-12v2h12c1.1,0,2-.9,2-2v-6c0-1.1-.9-2-2-2h-12Z"/>
</svg>

<svg xmlns="http://www.w3.org/2000/svg" width="24" height="24" fill="currentColor" viewBox="0 0 24 24">
  <path d="M7 18h1v1H5v-1h1V6H5V5h3v1H7zm-2-3H4V9h1V7H4c-1.1 0-2 .9-2 2v6c0 1.1.9 2 2 2h1zm3-8v2h12v6H8v2h12c1.1 0 2-.9 2-2V9c0-1.1-.9-2-2-2z"/>
</svg>
